icons/svg/shields/h_mineshaft_shield.svg

<?xml version="1.0" encoding="UTF-8" standalone="no"?>
<!-- Created with Inkscape (http://www.inkscape.org/) -->

<svg
   xmlns:dc="http://purl.org/dc/elements/1.1/"
   xmlns:cc="http://creativecommons.org/ns#"
   xmlns:rdf="http://www.w3.org/1999/02/22-rdf-syntax-ns#"
   xmlns:svg="http://www.w3.org/2000/svg"
   xmlns="http://www.w3.org/2000/svg"
   xmlns:sodipodi="http://sodipodi.sourceforge.net/DTD/sodipodi-0.dtd"
   xmlns:inkscape="http://www.inkscape.org/namespaces/inkscape"
   version="1.0"
   width="16"
   height="16"
   id="svg2"
   sodipodi:version="0.32"
   inkscape:version="0.91 r13725"
   sodipodi:docname="h_mineshaft_shield.svg"
   inkscape:output_extension="org.inkscape.output.svg.inkscape">
  <metadata
     id="metadata2975">
    <rdf:RDF>
      <cc:Work
         rdf:about="">
        <dc:format>image/svg+xml</dc:format>
        <dc:type
           rdf:resource="http://purl.org/dc/dcmitype/StillImage" />
        <cc:license
           rdf:resource="http://web.resource.org/cc/PublicDomain" />
        <dc:language>en</dc:language>
        <dc:title />
      </cc:Work>
    </rdf:RDF>
  </metadata>
  <sodipodi:namedview
     inkscape:window-height="1006"
     inkscape:window-width="1920"
     inkscape:pageshadow="2"
     inkscape:pageopacity="0.0"
     guidetolerance="10.0"
     gridtolerance="10.0"
     objecttolerance="10.0"
     borderopacity="1.0"
     bordercolor="#666666"
     pagecolor="#ffffff"
     id="base"
     inkscape:zoom="32"
     inkscape:cx="4.3400282"
     inkscape:cy="9.7256449"
     inkscape:window-x="1920"
     inkscape:window-y="0"
     inkscape:current-layer="svg2"
     showgrid="false"
     inkscape:window-maximized="1" />
  <defs
     id="defs4">
    <inkscape:perspective
       sodipodi:type="inkscape:persp3d"
       inkscape:vp_x="0 : 290 : 1"
       inkscape:vp_y="0 : 1000 : 0"
       inkscape:vp_z="580 : 290 : 1"
       inkscape:persp3d-origin="290 : 193.33333 : 1"
       id="perspective2441" />
    <inkscape:perspective
       id="perspective3452"
       inkscape:persp3d-origin="30 : 20 : 1"
       inkscape:vp_z="60 : 30 : 1"
       inkscape:vp_y="0 : 1000 : 0"
       inkscape:vp_x="0 : 30 : 1"
       sodipodi:type="inkscape:persp3d" />
    <symbol
       viewBox="244.5 110 489 219.9"
       id="symbol-university">
      <path
         id="path4460"
         d="m 79,43 57,119 c 0,0 21,-96 104,-96 83,0 124,106 124,106 L 407,39 489,22 0,17 79,43 z"
         inkscape:connector-curvature="0" />
      <path
         id="path4462"
         d="M 94,176 73,215"
         inkscape:connector-curvature="0"
         style="fill:none;stroke:#000000;stroke-width:20" />
      <path
         id="path4464"
         d="M 300,19 C 300,29.5 277.4,38 249.5,38 221.6,38 199,29.5 199,19 199,8.5 221.6,0 249.5,0 277.4,0 300,8.5 300,19 z"
         inkscape:connector-curvature="0" />
      <path
         id="path4466"
         d="M 112,216 96,178 64,88 C 64,88 55,80 60,53 65,26 76,29 76,29"
         ill="none"
         inkscape:connector-curvature="0"
         style="stroke:#000000;stroke-width:20" />
    </symbol>
    <inkscape:perspective
       id="perspective4471"
       inkscape:persp3d-origin="372.04724 : 350.78739 : 1"
       inkscape:vp_z="744.09448 : 526.18109 : 1"
       inkscape:vp_y="0 : 1000 : 0"
       inkscape:vp_x="0 : 526.18109 : 1"
       sodipodi:type="inkscape:persp3d" />
    <inkscape:perspective
       id="perspective4668"
       inkscape:persp3d-origin="6 : 4 : 1"
       inkscape:vp_z="12 : 6 : 1"
       inkscape:vp_y="0 : 1000 : 0"
       inkscape:vp_x="0 : 6 : 1"
       sodipodi:type="inkscape:persp3d" />
  </defs>
  <path
     sodipodi:type="inkscape:offset"
     inkscape:radius="1.0402073"
     inkscape:original="M 6.03125 2.0625 C 5.0613956 2.742055 4.0676661 3.3876241 3.21875 4.21875 C 2.4356487 5.0126092 1.9072847 6.038113 1.25 6.9375 L 2.6875 8 L 4.28125 5.71875 C 4.4703033 5.619403 4.5732396 5.8596293 4.6875 5.96875 C 6.2723456 7.539208 7.8597978 9.1395447 9.4375 10.71875 L 12.9375 14.25 L 13.5625 13.625 L 9.96875 10.1875 C 8.3590631 8.6408652 6.726072 7.0851846 5.125 5.53125 C 5.013673 5.4191416 4.7791637 5.3157596 4.875 5.125 L 7.09375 3.5 L 6.03125 2.0625 z M 10.5625 2.125 L 9.15625 3.375 L 11.0625 5.25 C 10.346904 6.0259919 9.6280448 6.7912697 8.90625 7.5625 C 9.0709527 7.7160062 9.2417179 7.8775606 9.40625 8.03125 C 10.109937 7.2402251 10.7908 6.4415083 11.5 5.65625 C 11.647927 5.5509534 12.492336 6.3795402 12.59375 6.53125 L 14.9375 7.75 C 14.809357 7.6584733 13.759103 5.1129716 13.59375 4.96875 C 13.338329 4.7449958 13.030084 4.4687649 12.71875 4.1875 L 13.21875 3.71875 L 12.84375 3.40625 L 12.375 3.875 C 11.703135 3.2597724 11.003663 2.6018166 10.5625 2.125 z M 6.84375 9.78125 C 6.727092 9.9062266 6.6165192 10.031165 6.5 10.15625 L 3.09375 13.78125 L 3.75 14.375 L 7.0625 10.65625 C 7.1714208 10.534421 7.2661982 10.434449 7.375 10.3125 C 7.1949302 10.138335 7.0239903 9.9552407 6.84375 9.78125 z "
     style="color:#000000;display:inline;overflow:visible;visibility:visible;opacity:0.804;fill:#ebe7e4;fill-opacity:1;fill-rule:nonzero;stroke:none;stroke-width:1.01682901;marker:none;enable-background:accumulate"
     id="path3022"
     d="m 6.0664062,1.0234375 a 1.0403113,1.0403113 0 0 0 -0.6328124,0.1875 C 4.4836581,1.8765359 3.4367084,2.54797 2.4902344,3.4746094 a 1.0403113,1.0403113 0 0 0 -0.011719,0.013672 C 1.5451667,4.4344521 1.0018748,5.5145483 0.41015625,6.3242188 a 1.0403113,1.0403113 0 0 0 0.22070313,1.4492187 l 1.43750002,1.0625 A 1.0403113,1.0403113 0 0 0 3.5410156,8.5957031 L 4.4882812,7.2402344 c 0.5727918,0.5696331 1.145426,1.144416 1.71875,1.71875 A 1.0403113,1.0403113 0 0 0 6.0839844,9.0722656 c -0.1288983,0.1380897 -0.2409386,0.2625338 -0.3457032,0.375 L 2.3359375,13.068359 a 1.0403113,1.0403113 0 0 0 0.060547,1.484375 l 0.65625,0.59375 a 1.0403113,1.0403113 0 0 0 1.4746094,-0.08008 l 3.3105468,-3.716797 0.00195,-0.002 c 0.096932,-0.108349 0.1906922,-0.207459 0.3105468,-0.341797 a 1.0403113,1.0403113 0 0 0 0.046875,-0.05664 c 0.1678346,0.168204 0.3362098,0.33605 0.5039063,0.503906 l 3.4980471,3.529297 a 1.0403113,1.0403113 0 0 0 1.474609,0.0039 l 0.625,-0.625 A 1.0403113,1.0403113 0 0 0 14.28125,12.873047 L 10.689453,9.4375 10.6875,9.4355469 C 10.479884,9.236065 10.27261,9.0355885 10.064453,8.8359375 a 1.0403113,1.0403113 0 0 0 0.119141,-0.1132813 c 0.504528,-0.5671471 0.988167,-1.1212089 1.476562,-1.6757812 0.07623,0.079793 0.16757,0.2109136 0.06836,0.0625 a 1.0403113,1.0403113 0 0 0 0.384765,0.3457031 l 2.34375,1.21875 A 1.0403113,1.0403113 0 0 0 15.777344,7.140625 c -0.0032,-0.00568 8.32e-4,-9.31e-4 -0.0059,-0.013672 C 15.743931,7.0744906 15.694889,6.9752853 15.638672,6.8554688 15.526237,6.6158356 15.378441,6.2867152 15.228516,5.953125 15.07859,5.6195348 14.926281,5.2803423 14.794922,5.0039062 14.729242,4.8656882 14.670515,4.7452098 14.611328,4.6347656 c -0.02959,-0.055222 -0.0593,-0.1072858 -0.09766,-0.1679687 -0.03836,-0.060683 -0.04318,-0.1127889 -0.236328,-0.28125 -0.02672,-0.023411 -0.06382,-0.059335 -0.0918,-0.083984 A 1.0403113,1.0403113 0 0 0 13.884766,2.9199219 l -0.375,-0.3125 A 1.0403113,1.0403113 0 0 0 12.410156,2.4628906 C 12.0149,2.0891071 11.569219,1.6806587 11.326172,1.4179688 A 1.0403113,1.0403113 0 0 0 9.8710938,1.3476562 l -1.40625,1.25 A 1.0403113,1.0403113 0 0 0 8.1191406,3.3203125 1.0403113,1.0403113 0 0 0 7.9296875,2.8808594 l -1.0625,-1.4375 A 1.0403113,1.0403113 0 0 0 6.0664062,1.0234375 Z M 8.1328125,3.5507812 A 1.0403113,1.0403113 0 0 0 8.4277344,4.1171875 L 9.6113281,5.28125 C 9.1244556,5.8042167 8.6385958,6.3257465 8.1464844,6.8515625 a 1.0403113,1.0403113 0 0 0 -0.064453,0.078125 C 7.5169897,6.3875155 6.9508994,5.8463737 6.390625,5.3046875 L 7.7089844,4.3398438 A 1.0403113,1.0403113 0 0 0 8.1328125,3.5507812 Z"
     transform="matrix(0.857,0,0,0.857,1.1571446,1.1753044)" />
</svg>

<?xml version="1.0" encoding="UTF-8" standalone="no"?>
<!-- Created with Inkscape (http://www.inkscape.org/) -->

<svg
   xmlns:dc="http://purl.org/dc/elements/1.1/"
   xmlns:cc="http://creativecommons.org/ns#"
   xmlns:rdf="http://www.w3.org/1999/02/22-rdf-syntax-ns#"
   xmlns:svg="http://www.w3.org/2000/svg"
   xmlns="http://www.w3.org/2000/svg"
   xmlns:sodipodi="http://sodipodi.sourceforge.net/DTD/sodipodi-0.dtd"
   xmlns:inkscape="http://www.inkscape.org/namespaces/inkscape"
   version="1.0"
   width="16"
   height="16"
   id="svg2"
   sodipodi:version="0.32"
   inkscape:version="0.48.4 r9939"
   sodipodi:docname="h_windmill_shield.svg"
   inkscape:output_extension="org.inkscape.output.svg.inkscape">
  <metadata
     id="metadata2975">
    <rdf:RDF>
      <cc:Work
         rdf:about="">
        <dc:format>image/svg+xml</dc:format>
        <dc:type
           rdf:resource="http://purl.org/dc/dcmitype/StillImage" />
        <cc:license
           rdf:resource="http://web.resource.org/cc/PublicDomain" />
        <dc:language>en</dc:language>
        <dc:title></dc:title>
      </cc:Work>
    </rdf:RDF>
  </metadata>
  <sodipodi:namedview
     inkscape:window-height="1004"
     inkscape:window-width="1920"
     inkscape:pageshadow="2"
     inkscape:pageopacity="0.0"
     guidetolerance="10.0"
     gridtolerance="10.0"
     objecttolerance="10.0"
     borderopacity="1.0"
     bordercolor="#666666"
     pagecolor="#ffffff"
     id="base"
     inkscape:zoom="45.254834"
     inkscape:cx="7.0882661"
     inkscape:cy="7.623232"
     inkscape:window-x="1680"
     inkscape:window-y="0"
     inkscape:current-layer="svg2"
     showgrid="false"
     inkscape:window-maximized="1" />
  <defs
     id="defs4">
    <inkscape:perspective
       sodipodi:type="inkscape:persp3d"
       inkscape:vp_x="0 : 290 : 1"
       inkscape:vp_y="0 : 1000 : 0"
       inkscape:vp_z="580 : 290 : 1"
       inkscape:persp3d-origin="290 : 193.33333 : 1"
       id="perspective2441" />
    <inkscape:perspective
       id="perspective3452"
       inkscape:persp3d-origin="30 : 20 : 1"
       inkscape:vp_z="60 : 30 : 1"
       inkscape:vp_y="0 : 1000 : 0"
       inkscape:vp_x="0 : 30 : 1"
       sodipodi:type="inkscape:persp3d" />
    <symbol
       viewBox="244.5 110 489 219.9"
       id="symbol-university">
      <path
         id="path4460"
         d="m 79,43 57,119 c 0,0 21,-96 104,-96 83,0 124,106 124,106 L 407,39 489,22 0,17 79,43 z"
         inkscape:connector-curvature="0" />
      <path
         id="path4462"
         d="M 94,176 73,215"
         inkscape:connector-curvature="0"
         style="fill:none;stroke:#000000;stroke-width:20" />
      <path
         id="path4464"
         d="M 300,19 C 300,29.5 277.4,38 249.5,38 221.6,38 199,29.5 199,19 199,8.5 221.6,0 249.5,0 277.4,0 300,8.5 300,19 z"
         inkscape:connector-curvature="0" />
      <path
         id="path4466"
         d="M 112,216 96,178 64,88 C 64,88 55,80 60,53 65,26 76,29 76,29"
         ill="none"
         inkscape:connector-curvature="0"
         style="stroke:#000000;stroke-width:20" />
    </symbol>
    <inkscape:perspective
       id="perspective4471"
       inkscape:persp3d-origin="372.04724 : 350.78739 : 1"
       inkscape:vp_z="744.09448 : 526.18109 : 1"
       inkscape:vp_y="0 : 1000 : 0"
       inkscape:vp_x="0 : 526.18109 : 1"
       sodipodi:type="inkscape:persp3d" />
    <inkscape:perspective
       id="perspective4668"
       inkscape:persp3d-origin="6 : 4 : 1"
       inkscape:vp_z="12 : 6 : 1"
       inkscape:vp_y="0 : 1000 : 0"
       inkscape:vp_x="0 : 6 : 1"
       sodipodi:type="inkscape:persp3d" />
  </defs>
  <path
     sodipodi:type="inkscape:offset"
     inkscape:radius="1.0402073"
     inkscape:original="M 6.03125 2.0625 C 5.0613956 2.742055 4.0676661 3.3876241 3.21875 4.21875 C 2.4356487 5.0126092 1.9072847 6.038113 1.25 6.9375 L 2.6875 8 L 4.28125 5.71875 C 4.4703033 5.619403 4.5732396 5.8596293 4.6875 5.96875 C 6.2723456 7.539208 7.8597978 9.1395447 9.4375 10.71875 L 12.9375 14.25 L 13.5625 13.625 L 9.96875 10.1875 C 8.3590631 8.6408652 6.726072 7.0851846 5.125 5.53125 C 5.013673 5.4191416 4.7791637 5.3157596 4.875 5.125 L 7.09375 3.5 L 6.03125 2.0625 z M 10.5625 2.125 L 9.15625 3.375 L 11.0625 5.25 C 10.346904 6.0259919 9.6280448 6.7912697 8.90625 7.5625 C 9.0709527 7.7160062 9.2417179 7.8775606 9.40625 8.03125 C 10.109937 7.2402251 10.7908 6.4415083 11.5 5.65625 C 11.647927 5.5509534 12.492336 6.3795402 12.59375 6.53125 L 14.9375 7.75 C 14.809357 7.6584733 13.759103 5.1129716 13.59375 4.96875 C 13.338329 4.7449958 13.030084 4.4687649 12.71875 4.1875 L 13.21875 3.71875 L 12.84375 3.40625 L 12.375 3.875 C 11.703135 3.2597724 11.003663 2.6018166 10.5625 2.125 z M 6.84375 9.78125 C 6.727092 9.9062266 6.6165192 10.031165 6.5 10.15625 L 3.09375 13.78125 L 3.75 14.375 L 7.0625 10.65625 C 7.1714208 10.534421 7.2661982 10.434449 7.375 10.3125 C 7.1949302 10.138335 7.0239903 9.9552407 6.84375 9.78125 z "
     style="opacity:0.69029852;color:#000000;fill:#f1eae4;fill-opacity:1;fill-rule:nonzero;stroke:none;stroke-width:1.01682901;marker:none;visibility:visible;display:inline;overflow:visible;enable-background:accumulate"
     id="path3022"
     d="M 5.875,1.03125 A 1.0403113,1.0403113 0 0 0 5.4375,1.21875 C 4.4875643,1.8843484 3.4464741,2.5421106 2.5,3.46875 A 1.0403113,1.0403113 0 0 0 2.46875,3.5 C 1.5354011,4.4461709 0.99796859,5.5028295 0.40625,6.3125 A 1.0403113,1.0403113 0 0 0 0.625,7.78125 l 1.4375,1.0625 a 1.0403113,1.0403113 0 0 0 1.46875,-0.25 l 0.9375,-1.375 c 0.5794192,0.5761103 1.1387706,1.1690155 1.71875,1.75 A 1.0403113,1.0403113 0 0 0 6.09375,9.0625 C 5.9648517,9.2005897 5.8547646,9.3250338 5.75,9.4375 l -3.40625,3.625 a 1.0403113,1.0403113 0 0 0 0.0625,1.5 L 3.0625,15.15625 A 1.0403113,1.0403113 0 0 0 4.53125,15.0625 l 3.3125,-3.71875 C 7.9412895,11.234651 8.0356793,11.13514 8.15625,11 A 1.0403113,1.0403113 0 0 0 8.1875,10.96875 c 0.1617091,0.162064 0.3384188,0.307007 0.5,0.46875 l 3.5,3.53125 A 1.0403113,1.0403113 0 0 0 13.6875,15 l 0.625,-0.625 a 1.0403113,1.0403113 0 0 0 -0.03125,-1.5 L 10.6875,9.4375 C 10.480693,9.2387942 10.269845,9.0426239 10.0625,8.84375 a 1.0403113,1.0403113 0 0 0 0.125,-0.125 c 0.504026,-0.5665836 0.980842,-1.133459 1.46875,-1.6875 0.07772,0.079046 0.164666,0.2153353 0.0625,0.0625 a 1.0403113,1.0403113 0 0 0 0.40625,0.375 L 14.46875,8.6875 A 1.0403113,1.0403113 0 0 0 15.78125,7.15625 1.0403113,1.0403113 0 0 0 15.75,7.125 c -4.33e-4,0.001 0.03133,-8.655e-4 0.03125,0 C 15.753696,7.0725375 15.681217,6.9635666 15.625,6.84375 15.512566,6.6041169 15.368676,6.2710902 15.21875,5.9375 15.068824,5.6039098 14.912609,5.276436 14.78125,5 14.71557,4.861782 14.684187,4.7354441 14.625,4.625 14.595407,4.5697779 14.538358,4.5294329 14.5,4.46875 14.461642,4.4080671 14.474394,4.3559611 14.28125,4.1875 14.253235,4.1629586 14.216897,4.1196525 14.1875,4.09375 A 1.0403113,1.0403113 0 0 0 13.875,2.90625 L 13.5,2.59375 a 1.0403113,1.0403113 0 0 0 -1.09375,-0.125 C 12.004461,2.0891385 11.558932,1.6725976 11.3125,1.40625 A 1.0403113,1.0403113 0 0 0 9.875,1.34375 l -1.40625,1.25 A 1.0403113,1.0403113 0 0 0 8.125,3.34375 1.0403113,1.0403113 0 0 0 7.9375,2.875 L 6.875,1.4375 a 1.0403113,1.0403113 0 0 0 -1,-0.40625 z m 2.25,2.5 A 1.0403113,1.0403113 0 0 0 8.4375,4.125 L 9.625,5.28125 C 9.1400711,5.8020965 8.6463755,6.320056 8.15625,6.84375 A 1.0403113,1.0403113 0 0 0 8.09375,6.9375 C 7.5298322,6.396424 6.9654611,5.8531004 6.40625,5.3125 L 7.71875,4.34375 A 1.0403113,1.0403113 0 0 0 8.125,3.53125 z" />
</svg>
